X: 111856
T: Kerry Mill Barndance
S: "Passing Time" (Jim & Mary Coogan & friends)
N: "a favorite of Mickey Carton, who used to play it with
N: 'The Stack of Barley'"
L: 1/8
M: 4/4
Q: 350
R: hornpipe
K: D
FG | A2 A2 B2 B2 | AFAd f2 f2 | gfed cABc | e2 dB A2 FG |
A2 A2 B2 B2 | AFAd f2 f2 | gfed cABc | e2 dc d2 :|
fg | a2 ba f2 f2 | a2 ba f2 f2 | gfed cABc | e2 dB A2 fg |
a2 ba f2 f2 | a2 ba f2 f2 | gfed cABc | e2 dc d2 :|
